X: 15281
T: The New way of Wooing
%R: march, reel
B: James Oswald "The Caledonian Pocket Companion" v.1 b.5 p.28 #1
S: https://ia800501.us.archive.org/18/items/caledonianpocket01rugg/caledonianpocket01rugg_bw.pdf
Z: 2020 John Chambers <jc:trillian.mit.edu>
N: Strains 2,3,4 have mismatched repeat/non-repeat double bars; not fixed. (Repeat them if you like.)
M: C
L: 1/8
K: Gmix
|: "_Brisk"\
G2G2 (Bcdc) | TB3A G3c | TA3G F2f2 | A3G F2A2 |\
G2G2 (Bc)(dc) | B3A G2c2 | A2F2 (AB)(cA) | G4 d4 ::\
B2 e4 (e^f) |
g2d2 (Bc)(dB) | g2d2 (Bc)(dB) | =f2c2 (AB)(cA) |\
B2 d4 (e^f) | (g^f)(ed) (ed)(cB) | A2F2 (AB)(cA) | G4 d4 |[|\
B2G2 (Bd)g2 | B2G2 (Bd)g2 | A2F2 (Ac)f2 |
A2F2 (Ac) f2 |\
B2G2 AcBA | BdcB cedc | ^fdge dBcA | G4 d4 |]|\
(g^f)ge Bgdg | Bgdg Bgdg | =fefc Afcf |
Afcf Afc^f |\
(g^f)gd Bgdg | Bgdg Bgdg | (fef)c AFcA | G4 d4 ::\
BGBd g2b2 | BGBd bgdB | AFAc =f2a2 |
AFAc afcA |\
BGBd gb^fa | egce dgBd | cAec BAG^F | G4 d4 ::\
BGAc BGdg |
BGAc BGdg | AFAc AFcf | AFAc AFcf |\
BGAB cde^f | gbag ^fedc | Bgfe dcBA | G4 d4 :|


